!! 00000] TT[00
!! NN
!!!OTL: Shi dajie
!!!ARE: Asia, China,Yunnan
!! Ethnic Group: Han
!! II, 72
!!!SCT: C0212
!!!YEM: Copyright 1995, estate of Helmut Schaffrath.
**kern
*ICvox
*Ivox
*M2/4
*k[]
*C:
{[2a
=1
4a]
8cc
8dd
=2
2ee
=3
4.dd
24cc
24dd
24cc
=4
4.a
8cc
=5
8e
8g
4a}
=6
{8ee
8ee
8dd
8ee
=7
4ee
8dd
8ee
=8
4a
4ee
=9
4.dd
24cc
24dd
24cc
=10
4.a
8cc
=11
8e
8g
8a
8r}
=12
{8cc
8cc
8a
8dd
=13
8cc
8a
8a
8g
=14
8cc
8a
8a
8g
=15
8g
8e
8d
8c
=16
4.d
8c
=17
2A}
=18
{8a
8a
8a
8cc
=19
4ee
8dd
8ee
=20
4a
4ee
=21
4.dd
24cc
24dd
24cc
=22
4.a
8cc
=23
8e
8g
8a
8r}
=24
{8cc
8cc
8a
8dd
=25
4cc
8a
8g
=26
8cc
8a
8a
8g
=27
8g
8e
8d
8c
=28
4.d
8c
=29
2A}
=30
{4ee
8ee
8cc
=31
4.dd
24cc
24dd
24cc
=32
4.a
8cc
=33
4e
4a
=34
8a
8g
4e}
=35
{8cc
8cc
8a
8dd
=36
4cc
8a
8g
=37
8cc
8a
8a
8g
=38
8g
8e
8d
8c
=39
4.d
8c
=40
2A}
==
!!!AGN: Hua deng diao, Preislied auf 10 Schwestern; „hnlich wie Shange
!! Vorspiel; Verzierungen
!!    aehnlich wie II, 66 aber keine Variante. - 10 Schwestern gehen
!!    zum Teepfluecken auf den Berg. Die letzte ist etwas dumm.
!!    Pinyin-Text der ersten Strophe vorhanden!
!!!ONB: ESAC (Essen Associative Code) Database: CHINA_094
!!!AMT: simple duple
!!!AIN: vox
!!!EED: Helmut Schaffrath
!!!EEV: 1.0
*-
!!!ONB: Tied note syntax fixed by Craig Sapp, 2004/05/03/
